src/lib/packages/icons/src/assets/filled/grid-square-plus.svg

<svg width="24" height="24" viewBox="0 0 24 24" fill="none" xmlns="http://www.w3.org/2000/svg">
<path d="M20.75 17C20.75 17.414 20.414 17.75 20 17.75H17.75V20C17.75 20.414 17.414 20.75 17 20.75C16.586 20.75 16.25 20.414 16.25 20V17.75H14C13.586 17.75 13.25 17.414 13.25 17C13.25 16.586 13.586 16.25 14 16.25H16.25V14C16.25 13.586 16.586 13.25 17 13.25C17.414 13.25 17.75 13.586 17.75 14V16.25H20C20.414 16.25 20.75 16.586 20.75 17ZM18.5 4H15.5C14.5 4 14 4.5 14 5.5V8.5C14 9.5 14.5 10 15.5 10H18.5C19.5 10 20 9.5 20 8.5V5.5C20 4.5 19.5 4 18.5 4ZM8.5 4H5.5C4.5 4 4 4.5 4 5.5V8.5C4 9.5 4.5 10 5.5 10H8.5C9.5 10 10 9.5 10 8.5V5.5C10 4.5 9.5 4 8.5 4ZM8.5 14H5.5C4.5 14 4 14.5 4 15.5V18.5C4 19.5 4.5 20 5.5 20H8.5C9.5 20 10 19.5 10 18.5V15.5C10 14.5 9.5 14 8.5 14Z" fill="currentColor"/>
</svg>

<svg xmlns="http://www.w3.org/2000/svg" width="24" height="24" fill="none"><path fill="currentColor" d="M20.75 17a.75.75 0 0 1-.75.75h-2.25V20a.75.75 0 0 1-1.5 0v-2.25H14a.75.75 0 0 1 0-1.5h2.25V14a.75.75 0 0 1 1.5 0v2.25H20a.75.75 0 0 1 .75.75ZM18.5 4h-3c-1 0-1.5.5-1.5 1.5v3c0 1 .5 1.5 1.5 1.5h3c1 0 1.5-.5 1.5-1.5v-3c0-1-.5-1.5-1.5-1.5Zm-10 0h-3C4.5 4 4 4.5 4 5.5v3c0 1 .5 1.5 1.5 1.5h3c1 0 1.5-.5 1.5-1.5v-3c0-1-.5-1.5-1.5-1.5Zm0 10h-3c-1 0-1.5.5-1.5 1.5v3c0 1 .5 1.5 1.5 1.5h3c1 0 1.5-.5 1.5-1.5v-3c0-1-.5-1.5-1.5-1.5Z"/></svg>
